X:580
T: Jenny's Folly
T: \'Oinsi\'ulacht Shin\'ead
S: B.Breathnach:"Ceol Rince na hEireann" IV/185
Z: B.Black
L: 1/8
M: 4/4
R: reel
K: Ddor
EG|AD (3DDD AGEF|GcAG EFGE|AD (3DDD cDBD|(3ABc AG c2 Bc|
AD (3DDD AGEF|Gc c2 d2 cd|ecdB cAGE|(3ABc GE D2 :|
zG|ADcD BDAG|(3Bcd ec dcAG|(3Bcd ec dcAG|gece d2 de|
fage dcAG|cEAG EAGE|ecdB cAGE|AcGE D2 :|
